svg/Octicons/markdown.svg

<svg xmlns="http://www.w3.org/2000/svg" viewBox="0 0 1024 1024"><path d="m950.15 192h-876.31c-40.719 0-73.846 33.13-73.846 73.846v492.31c0 40.721 33.13 73.846 73.846 73.846h876.31c40.721 0 73.846-33.12 73.846-73.846v-492.31c0-40.719-33.12-73.846-73.846-73.846m-374.15 511.87l-128 .125v-192l-96 123.08-96-123.08v192h-128v-384h128l96 128 96-128 128-.125v384m191.09 32l-159.09-223.87h96v-192h128v192h96l-160.91 223.87"/></svg>

<svg height="1024" width="1024" xmlns="http://www.w3.org/2000/svg">
  <path d="M950.154 192H73.846C33.127 192 0 225.12699999999995 0 265.846v492.308C0 798.875 33.127 832 73.846 832h876.308c40.721 0 73.846-33.125 73.846-73.846V265.846C1024 225.12699999999995 990.875 192 950.154 192zM576 703.875L448 704V512l-96 123.077L256 512v192H128V320h128l96 128 96-128 128-0.125V703.875zM767.091 735.875L608 512h96V320h128v192h96L767.091 735.875z" />
</svg>
